X: 15489
T: Glengariff Bay
R: hornpipe
M: 4/4
K: Gmajor
|:(3DEF|GD D2 GD D2|GABG AGFD|BGBd cBAG|DA A2 ABcA|
GD D2 GD D2|GA (3BAG AFDc|B3c dBAB|G2 GF G2:|
|:dc|BGBd g3a|bagf gfed|ef (3gfe edcB|(3cBA BG FAdF|
GD D2 GD D2|GABG AFDc|B3c dBAB|G2 GF G2:|

